!!!OTL: Nachtigall. / (Mailied.)
!!!ARE: Europa, Mitteleuropa, Deutschland
!!!SCT: A0157
!!!TXL: @@GMH
!!!YEM: Copyright 1995, estate of Helmut Schaffrath.
**kern	**text
*M4/2	*
*met(c|)	*
*clefC4	*
*k[b-]	*
*F:ion	*
=1	=1
!LO:TX:a:t=jon	!
1ryy	.
2ryy	.
{2F	Der
=2	=2
2F	mey
2G	wil
2A/	ſich
2B-	mit
=3	=3
1c	gun-
2A}	-ſten,
{2A	mit
=4	=4
1d	gun-
2c	-ſten
2B-	be-
=5	=5
1c	-wei-
2A}	-ſen,
{2A	prüf
=6	=6
2d	ich
2d	an
2c	al-
2A	-ler
=7	=7
4c	vö-
4B-	-ge-
4A	-lein
4G	ge-
2F	-ſang,
2r	.
=8	=8
2r}	.
{2F	bringt
2F	vns
2A/	der
=9	=9
2G	ſom-
2F	-mer
2E	ma-
2E	-nig-
=10	=10
1D	-falt,
2r}	.
{2E	ich
=11	=11
2.F	hör
4F	fraw
2F	nachtgal
2E	.
=12	=12
1D	ſin-
1C	.gen,
=13	=13
2r}	.
{2F	ſie
2F	ſingt
2F	recht
=14	=14
2F	wie
2E	ein
2.F	ſei-
4E	-ten-
=15	=15
2D}	-ſpil,
{2C	der
2F	mey
2A/	vns
=16	=16
1G	wil
2r}	.
{2F	den
=17	=17
2.F	liech-
4E	-ten
2D	ſom-
2C	-mer
=18	=18
2G	brin-
2G	-gen,
2G	ja
2G	brin-
=19	=19
0F/ll}	-gen.
==	==
!!!GTL: Liebeslieder
!!!AGN: Romanze, Ballade, Lied
!! Forster I. 1539 No. 47.
!!!ONB: ESAC (Essen Associative Code) Database: ALTDEU
!!!AMT: simple quadruple
!!!AIN: vox
!!!EED: Helmut Schaffrath
!!!EEV: 1.0
!!!RDF**kern: l = terminal long
!!!URL-scan: https://rosdok.uni-rostock.de/mcrviewer/recordIdentifier/rosdok_ppn738218359/iview2/phys_0324.iview2?x=-2231.2783251231526&y=1699.5655172131956&scale=0.2314709236031927&rotation=0&layout=singlePageLayout&logicalDiv=log_0009
!!!ENC: Anna Maria Matuszewska
!!!EEV: 2024/26/02
*-	*-
